X: 1
T: Croton Dam, The
M: 4/4
L: 1/8
R: reel
K: Dmaj
d2 fe d~B3|A~F3 D~F3|dffe d~e3|afeg fddB|
d2 fe d~B3|A~F3 ABce|f2ef dBAG|FAEA D3 A:|
~a3f g~B3|dBAd B~A3|faaf g3g|faeg fddA|
~a3f g~B3|dBAd B~A3|Bcdc dBAG|FAEA D3A|
~a3f g~B3|dBAd B~A3|gaaf ggag|faeg fddA|
dfaf ~g2eg|fedf ecBc|dBAG ABAG|(3FGA (3EFG D3z|
